static/logos/spotify-wordmark-color.svg

<svg width="100" height="32" viewBox="0 0 100 32" fill="none" xmlns="http://www.w3.org/2000/svg">
<path fill-rule="evenodd" clip-rule="evenodd" d="M77.9357 7.26938C77.4966 7.26918 77.0754 7.44354 76.7648 7.75413C76.4542 8.0647 76.2794 8.48606 76.2792 8.92549C76.279 9.36494 76.4534 9.78645 76.7636 10.0973C77.0739 10.4082 77.4949 10.583 77.934 10.5832C78.3733 10.5832 78.7945 10.4085 79.1053 10.0977C79.4159 9.78678 79.5904 9.36515 79.5904 8.92549C79.5904 8.48584 79.4159 8.06421 79.1053 7.75333C78.7945 7.44244 78.3733 7.26779 77.934 7.26779L77.9357 7.26938ZM79.0768 11.8588H76.7689C76.7243 11.8593 76.6815 11.8773 76.6499 11.9092C76.6183 11.941 76.6006 11.984 76.6006 12.0288V22.11C76.6006 22.2053 76.6754 22.28 76.7689 22.28H79.0784C79.1234 22.28 79.1666 22.2621 79.1986 22.2301C79.2304 22.1984 79.2483 22.1552 79.2483 22.11V12.0288C79.2483 11.9837 79.2304 11.9405 79.1986 11.9086C79.1666 11.8767 79.1234 11.8588 79.0784 11.8588H79.0768ZM84.2102 11.8684V11.5506C84.2102 10.6102 84.5705 10.1908 85.3784 10.1908C85.8595 10.1908 86.2452 10.2861 86.6801 10.4323C86.7055 10.4409 86.7328 10.4433 86.7595 10.4393C86.7862 10.4352 86.8114 10.4248 86.8332 10.4089C86.8548 10.393 86.8725 10.3721 86.8845 10.348C86.8966 10.3239 86.9027 10.2972 86.9023 10.2702V8.32421C86.9021 8.28784 86.8904 8.25248 86.8687 8.22331C86.8469 8.19415 86.8165 8.1727 86.7817 8.16217C86.1595 7.97193 85.5116 7.87869 84.8609 7.88576C82.7293 7.88576 81.6023 9.08832 81.6023 11.3616V11.8509H80.4927C80.4481 11.8509 80.4051 11.8686 80.3731 11.9001C80.3414 11.9316 80.3234 11.9745 80.3228 12.0193V14.0161C80.3228 14.1099 80.3992 14.1861 80.4927 14.1861H81.6023V22.1132C81.6023 22.2053 81.6768 22.2817 81.7705 22.2817H84.0801C84.1249 22.2813 84.1676 22.2631 84.1992 22.2314C84.2306 22.1994 84.2483 22.1564 84.2483 22.1116V14.1845H86.4039L89.7071 22.1116C89.3324 22.9426 88.9642 23.1094 88.4609 23.1094C88.0532 23.1094 87.6245 22.987 87.1864 22.747C87.1662 22.7362 87.144 22.7295 87.121 22.7273C87.0982 22.725 87.075 22.7275 87.053 22.7344C87.031 22.7419 87.0106 22.754 86.9933 22.7699C86.9762 22.7857 86.9623 22.8051 86.953 22.8265L86.1705 24.5438C86.1524 24.5825 86.1495 24.6269 86.163 24.6676C86.1762 24.7083 86.2045 24.7424 86.242 24.7629C87.0595 25.2063 87.7976 25.3953 88.7086 25.3953C90.4135 25.3953 91.3562 24.601 92.1864 22.4611L96.1927 12.1003C96.2033 12.0746 96.2071 12.0468 96.2043 12.0192C96.2014 11.9916 96.1917 11.9652 96.1762 11.9423C96.1607 11.9193 96.1397 11.9005 96.1151 11.8877C96.0906 11.8748 96.0634 11.8681 96.0357 11.8684H93.6324C93.5974 11.8687 93.5634 11.8799 93.535 11.9004C93.5065 11.9209 93.4852 11.9496 93.4737 11.9827L91.0102 19.0218L88.3118 11.978C88.2998 11.9459 88.2784 11.9182 88.2503 11.8986C88.2222 11.879 88.1888 11.8685 88.1546 11.8684H84.2102ZM75.3579 11.8588H72.8181V9.2583C72.8181 9.23606 72.8137 9.21403 72.8051 9.1935C72.7966 9.17297 72.7841 9.15433 72.7682 9.13867C72.7526 9.12301 72.7338 9.11065 72.7133 9.10228C72.6927 9.0939 72.6705 9.08971 72.6483 9.08991H70.3387C70.2943 9.09032 70.2517 9.1082 70.2202 9.13969C70.1888 9.17118 70.1709 9.21378 70.1705 9.2583V11.8588H69.0595C69.0373 11.8588 69.0151 11.8632 68.9947 11.8718C68.9741 11.8804 68.9556 11.8929 68.9399 11.9087C68.9243 11.9245 68.9118 11.9433 68.9035 11.9639C68.8951 11.9845 68.8911 12.0066 68.8913 12.0288V14.0146C68.8913 14.1083 68.9674 14.1845 69.0595 14.1845H70.1705V19.3221C70.1705 21.4 71.2023 22.4515 73.2403 22.4515C74.0689 22.4515 74.7546 22.2817 75.4023 21.9147C75.4285 21.9 75.4501 21.8784 75.4652 21.8525C75.4803 21.8265 75.4882 21.7969 75.488 21.767V19.8765C75.4884 19.8475 75.4813 19.8189 75.4674 19.7934C75.4536 19.768 75.4334 19.7465 75.4088 19.7312C75.3841 19.7159 75.356 19.7071 75.3271 19.7059C75.2982 19.7046 75.2695 19.7108 75.2436 19.724C74.7992 19.948 74.3689 20.0512 73.888 20.0512C73.1467 20.0512 72.8165 19.716 72.8165 18.9614V14.1845H75.3562C75.3786 14.1847 75.4008 14.1805 75.4214 14.172C75.4422 14.1636 75.4609 14.1511 75.4768 14.1352C75.4927 14.1194 75.5051 14.1006 75.5137 14.0799C75.522 14.0591 75.5263 14.0369 75.5261 14.0146V12.0288C75.5263 12.0066 75.522 11.9845 75.5137 11.9639C75.5053 11.9433 75.4931 11.9245 75.4774 11.9087C75.4617 11.8929 75.4432 11.8804 75.4226 11.8718C75.4021 11.8632 75.3801 11.8588 75.3579 11.8588ZM63.1817 11.6476C60.0705 11.6476 57.6308 14.0463 57.6308 17.1076C57.6308 20.137 60.0532 22.5088 63.1436 22.5088C66.2658 22.5088 68.7118 20.1195 68.7118 17.0694C68.7118 14.0289 66.2833 11.6476 63.1817 11.6476ZM63.1817 20.1656C61.5261 20.1656 60.2768 18.8344 60.2768 17.0678C60.2768 15.2966 61.4833 14.0114 63.1436 14.0114C64.8102 14.0114 66.0642 15.3426 66.0642 17.1091C66.0642 18.8804 64.8532 20.1656 63.1817 20.1656ZM52.0483 11.6476C50.7467 11.6476 49.6801 12.1607 48.8006 13.2107V12.0288C48.8006 11.984 48.7831 11.941 48.7515 11.9092C48.72 11.8773 48.6772 11.8593 48.6324 11.8588H46.3228C46.2782 11.8593 46.2355 11.8773 46.2039 11.9092C46.1723 11.941 46.1546 11.984 46.1546 12.0288V25.1666C46.1546 25.2587 46.2308 25.3348 46.3228 25.3348H48.6324C48.677 25.3344 48.7196 25.3167 48.7509 25.2851C48.7825 25.2536 48.8002 25.211 48.8006 25.1666V21.0204C49.6817 22.0067 50.7483 22.4896 52.0483 22.4896C54.4642 22.4896 56.9102 20.6279 56.9102 17.0694C56.9102 13.511 54.4658 11.6476 52.0483 11.6476ZM54.2261 17.0694C54.2261 18.8804 53.1102 20.1465 51.5135 20.1465C49.934 20.1465 48.7436 18.8232 48.7436 17.0694C48.7436 15.3156 49.934 13.9923 51.5135 13.9923C53.0847 13.9923 54.2277 15.2854 54.2277 17.0694H54.2261ZM40.8357 14.1941C38.2579 13.5777 37.7992 13.1456 37.7992 12.2385C37.7992 11.3807 38.6055 10.804 39.8055 10.804C40.9674 10.804 42.1214 11.2409 43.3293 12.1432C43.3473 12.1565 43.3676 12.1661 43.3894 12.1715C43.4112 12.1769 43.4338 12.1779 43.4558 12.1745C43.478 12.1711 43.4992 12.1633 43.5183 12.1517C43.5375 12.1401 43.5542 12.1248 43.5674 12.1067L44.8277 10.329C44.8522 10.2939 44.8625 10.2508 44.8566 10.2084C44.8507 10.166 44.8289 10.1274 44.7959 10.1003C43.3579 8.94376 41.7373 8.38299 39.8436 8.38299C37.0579 8.38299 35.1135 10.0542 35.1135 12.4482C35.1135 15.0138 36.7913 15.9225 39.6913 16.623C42.1579 17.1917 42.5754 17.6683 42.5754 18.5214C42.5754 19.465 41.734 20.0512 40.3768 20.0512C38.8721 20.0512 37.6452 19.5429 36.2705 18.3546C36.2361 18.3253 36.1919 18.3105 36.1467 18.3133C36.1243 18.315 36.1025 18.3213 36.0827 18.3316C36.0627 18.342 36.045 18.3563 36.0308 18.3737L34.6181 20.0544C34.5894 20.0879 34.575 20.1315 34.5782 20.1756C34.5815 20.2197 34.6023 20.2606 34.6357 20.2895C36.1921 21.7008 38.2196 22.4788 40.3198 22.4707C43.3198 22.4707 45.2595 20.8297 45.2595 18.2911C45.2595 16.1449 43.9784 14.9582 40.8357 14.1925V14.1941ZM15.0928 0.484497C11.1313 0.484497 7.3322 2.05944 4.53106 4.86287C1.72991 7.66629 0.15625 11.4685 0.15625 15.4332C0.15625 19.3978 1.72991 23.2 4.53106 26.0035C7.3322 28.8069 11.1313 30.3819 15.0928 30.3819C19.0542 30.3819 22.8534 28.8069 25.6544 26.0035C28.4556 23.2 30.0293 19.3978 30.0293 15.4332C30.0293 11.4685 28.4556 7.66629 25.6544 4.86287C22.8534 2.05944 19.0542 0.484497 15.0928 0.484497ZM21.9436 22.045C21.8799 22.1497 21.7964 22.2407 21.6974 22.313C21.5986 22.3851 21.4864 22.4373 21.3674 22.466C21.2483 22.4947 21.1249 22.4998 21.0039 22.4806C20.8829 22.4615 20.767 22.4187 20.6625 22.3548C17.1547 20.2101 12.742 19.7256 7.54197 20.9138C7.42283 20.9411 7.29951 20.9446 7.17904 20.924C7.05857 20.9037 6.94332 20.8595 6.83985 20.7945C6.73637 20.7295 6.64672 20.6446 6.576 20.545C6.50527 20.4452 6.45488 20.3325 6.42767 20.2133C6.40049 20.094 6.397 19.9706 6.41745 19.85C6.43792 19.7295 6.48191 19.6141 6.5469 19.5106C6.61191 19.407 6.69666 19.3173 6.79629 19.2465C6.89594 19.1757 7.00855 19.1253 7.12768 19.0981C12.8166 17.7954 17.6975 18.3562 21.634 20.7646C22.0721 21.033 22.2102 21.6065 21.9436 22.045ZM23.7689 17.9749C23.6073 18.2379 23.3483 18.4261 23.0483 18.4982C22.7485 18.5702 22.4322 18.5203 22.1689 18.3594C18.1547 15.8891 12.034 15.1742 7.28482 16.6167C6.99586 16.6853 6.69165 16.641 6.43417 16.4929C6.1767 16.3448 5.98535 16.104 5.89912 15.8196C5.81289 15.5352 5.83829 15.2286 5.97012 14.9623C6.10195 14.6959 6.3303 14.49 6.60863 14.3863C12.034 12.7389 18.7769 13.538 23.3864 16.372C23.5169 16.4521 23.6304 16.5571 23.7204 16.6811C23.8104 16.8051 23.8752 16.9456 23.9108 17.0946C23.9465 17.2436 23.9524 17.3982 23.9283 17.5495C23.9043 17.7009 23.8507 17.8459 23.7705 17.9765L23.7689 17.9749ZM23.9293 13.7366C19.1134 10.8755 11.1705 10.6118 6.57529 12.0098C6.39896 12.066 6.21319 12.0867 6.02879 12.0705C5.8444 12.0544 5.66505 12.0017 5.5012 11.9155C5.33733 11.8294 5.1922 11.7115 5.07425 11.5687C4.95631 11.4259 4.8679 11.2611 4.81415 11.0838C4.7604 10.9066 4.74238 10.7204 4.76118 10.5361C4.77996 10.3518 4.83515 10.1731 4.92354 10.0103C5.01193 9.84753 5.13177 9.70399 5.27609 9.58798C5.4204 9.47197 5.58631 9.38584 5.76419 9.33456C11.0388 7.73008 19.8102 8.04144 25.3515 11.333C25.6701 11.5222 25.9006 11.8303 25.9925 12.1896C26.0841 12.5489 26.0293 12.9299 25.8403 13.2489C25.6513 13.5678 25.3434 13.7985 24.9845 13.8903C24.6255 13.9821 24.2448 13.9273 23.9261 13.7381" fill="#1CD155"/>
</svg>

<svg xmlns="http://www.w3.org/2000/svg" width="200" height="64" fill="none" viewBox="0 0 100 32"><path fill="#1CD155" fill-rule="evenodd" d="M77.936 7.27a1.655 1.655 0 0 0-1.657 1.655 1.658 1.658 0 0 0 1.655 1.658 1.656 1.656 0 0 0 1.171-2.83 1.656 1.656 0 0 0-1.171-.485l.002.001Zm1.14 4.589H76.77a.17.17 0 0 0-.168.17V22.11c0 .095.074.17.168.17h2.31a.17.17 0 0 0 .17-.17V12.029a.17.17 0 0 0-.17-.17h-.002Zm5.134.01v-.318c0-.94.36-1.36 1.168-1.36.481 0 .867.095 1.302.241a.17.17 0 0 0 .153-.023.17.17 0 0 0 .07-.139V8.324a.17.17 0 0 0-.121-.162 6.334 6.334 0 0 0-1.921-.276c-2.132 0-3.259 1.202-3.259 3.476v.489h-1.11a.17.17 0 0 0-.17.168v1.997c0 .094.077.17.17.17h1.11v7.927c0 .092.075.169.168.169h2.31a.17.17 0 0 0 .168-.17v-7.927h2.156l3.303 7.927c-.375.83-.743.997-1.246.997-.408 0-.837-.122-1.275-.362a.174.174 0 0 0-.133-.013.169.169 0 0 0-.1.092l-.782 1.718a.168.168 0 0 0 .071.219c.817.443 1.556.632 2.467.632 1.704 0 2.647-.794 3.477-2.934l4.007-10.36a.168.168 0 0 0-.157-.233h-2.404a.169.169 0 0 0-.158.115l-2.464 7.039-2.698-7.044a.169.169 0 0 0-.157-.11H84.21Zm-8.852-.01h-2.54v-2.6a.168.168 0 0 0-.17-.17h-2.31a.17.17 0 0 0-.167.17v2.6h-1.112a.167.167 0 0 0-.168.17v1.986c0 .093.076.17.168.17h1.112v5.137c0 2.078 1.031 3.13 3.07 3.13.828 0 1.514-.17 2.161-.537a.168.168 0 0 0 .086-.148v-1.89a.169.169 0 0 0-.244-.153 2.907 2.907 0 0 1-1.356.327c-.741 0-1.072-.335-1.072-1.09v-4.776h2.54a.167.167 0 0 0 .158-.105.172.172 0 0 0 .012-.065v-1.986a.17.17 0 0 0-.103-.157.167.167 0 0 0-.065-.013Zm-12.176-.211c-3.111 0-5.551 2.398-5.551 5.46 0 3.029 2.422 5.4 5.513 5.4 3.122 0 5.568-2.389 5.568-5.439 0-3.04-2.429-5.421-5.53-5.421Zm0 8.518c-1.656 0-2.905-1.332-2.905-3.098 0-1.771 1.206-3.057 2.867-3.057 1.666 0 2.92 1.332 2.92 3.098 0 1.771-1.21 3.057-2.882 3.057Zm-11.134-8.518c-1.301 0-2.368.513-3.247 1.563v-1.182a.17.17 0 0 0-.169-.17h-2.31a.17.17 0 0 0-.167.17v13.138a.17.17 0 0 0 .168.168h2.31a.169.169 0 0 0 .168-.168V21.02c.88.987 1.947 1.47 3.247 1.47 2.416 0 4.862-1.862 4.862-5.42 0-3.559-2.444-5.422-4.862-5.422Zm2.178 5.421c0 1.811-1.116 3.078-2.712 3.078-1.58 0-2.77-1.324-2.77-3.078 0-1.753 1.19-3.077 2.77-3.077 1.57 0 2.714 1.293 2.714 3.077h-.002Zm-13.39-2.875c-2.578-.616-3.037-1.048-3.037-1.956 0-.857.806-1.434 2.007-1.434 1.161 0 2.315.437 3.523 1.34a.17.17 0 0 0 .238-.037l1.26-1.778a.17.17 0 0 0-.031-.229c-1.438-1.156-3.059-1.717-4.952-1.717-2.786 0-4.73 1.671-4.73 4.065 0 2.566 1.677 3.474 4.577 4.175 2.467.569 2.884 1.045 2.884 1.898 0 .944-.841 1.53-2.198 1.53-1.505 0-2.732-.508-4.107-1.696a.166.166 0 0 0-.24.02l-1.412 1.68a.168.168 0 0 0 .018.235 8.414 8.414 0 0 0 5.684 2.18c3 0 4.94-1.64 4.94-4.179 0-2.146-1.282-3.333-4.424-4.098v.001ZM15.093.484A14.93 14.93 0 0 0 4.53 4.863a14.955 14.955 0 0 0 0 21.14 14.93 14.93 0 0 0 21.123 0 14.955 14.955 0 0 0 0-21.14A14.93 14.93 0 0 0 15.093.484Zm6.85 21.561a.93.93 0 0 1-1.28.31c-3.508-2.145-7.921-2.63-13.121-1.441a.926.926 0 0 1-.966-.369.933.933 0 0 1 .552-1.447c5.689-1.303 10.57-.742 14.506 1.667a.934.934 0 0 1 .31 1.28Zm1.826-4.07a1.165 1.165 0 0 1-1.6.384c-4.014-2.47-10.135-3.185-14.884-1.742a1.166 1.166 0 0 1-1.315-1.655c.132-.266.36-.472.639-.576 5.425-1.647 12.168-.848 16.777 1.986a1.167 1.167 0 0 1 .384 1.605l-.001-.002Zm.16-4.238c-4.816-2.861-12.758-3.125-17.354-1.727a1.397 1.397 0 1 1-.81-2.675C11.038 7.73 19.81 8.04 25.351 11.333a1.4 1.4 0 0 1-.367 2.557c-.36.092-.74.037-1.059-.152" clip-rule="evenodd"/></svg>
